X:1525
T:Monday Morning
R:reel
N:"collected from Dillon"
B:"O'Neill's Dance Music of Ireland, 1525"
T: maidin dia luain.
Z:transcribed by John B. Walsh, walsh@math.ubc.ca 8/23/96
Z:The key is wrong--it's really in G.
M:C|
L:1/8
K:D
GBdg edcB|g2 ((3bag) aAAB|GBdg edcB|cedc BG G2 Hx:|
g2 (gf) gbag|fgaf bgaf|g2 (gf) gbag|fgaf bg g2|
Bggf gbag|fgag bgaf|gbag fagf|((3efg) fa gedB !D.C.!||


